svgs/sharp-light/table-tree.svg

<svg xmlns="http://www.w3.org/2000/svg" viewBox="0 0 512 512"><!--! Font Awesome Pro 6.6.0 by @fontawesome - https://fontawesome.com License - https://fontawesome.com/license (Commercial License) Copyright 2024 Fonticons, Inc. --><path d="M32 64l0 96 64 0 32 0 352 0 0-96L32 64zM96 192l-64 0 0 256 448 0 0-256-352 0 0 64 48 0 16 0 0 32-16 0-48 0 0 64 112 0 16 0 0 32-16 0-128 0-16 0 0-16 0-80 0-16 0-80zM0 32l32 0 448 0 32 0 0 32 0 384 0 32-32 0L32 480 0 480l0-32L0 64 0 32zM224 256l192 0 0 32-192 0 0-32zm192 96l0 32-128 0 0-32 128 0z"/></svg>

<svg xmlns="http://www.w3.org/2000/svg" viewBox="0 0 512 512"><!--! Font Awesome Pro 6.4.0 by @fontawesome - https://fontawesome.com License - https://fontawesome.com/license (Commercial License) Copyright 2023 Fonticons, Inc. --><path d="M32 64v96H96h32H480V64H32zM96 192H32V448H480V192H128v64h48 16v32H176 128v64H240h16v32H240 112 96V368 288 272 192zM0 32H32 480h32V64 448v32H480 32 0V448 64 32zM224 256H416v32H224V256zm192 96v32H288V352H416z"/></svg>
